!!!COM:	Martini, Johannes
!!!CDT:	~1440///-~1497//
!!!OPR:	Missa Cela sans plus
!!!ONM:	4
!!!OTL:	Sanctus
!!!AGN:	Mass; Sanctus
!!!SCT:	Mar1001d
!!!SCA:	Mar1001d
!!!voices:	4
!!!voices-OPR:	4
**kern	**kern	**kern	**kern
*staff4	*staff3	*staff2	*staff1
*Ivox	*Ivox	*Ivox	*Ivox
*I"Bassus	*I"Tenor	*I"Altus	*I"Superius
*I'B	*I'T	*I'A	*I'S
*>[A,B,C,D,C]	*>[A,B,C,D,C]	*>[A,B,C,D,C]	*>[A,B,C,D,C]
*>A	*>A	*>A	*>A
*clefF4	*clefGv2	*clefGv2	*clefG2
*k[]	*k[]	*k[]	*k[]
*M2/1	*M2/1	*M2/1	*M2/1
*met(C)	*met(C)	*met(C)	*met(C)
=1-	=1-	=1-	=1-
!!section: Sanctus
!!!OMD: Sanctus
1.D	0r	0d	0r
[2F\	.	.	.
=2	=2	=2	=2
4F\]	0r	1c	0r
4E\	.	.	.
1A	.	.	.
.	.	1B	.
2G\	.	.	.
=3	=3	=3	=3
2A\	0r	1A	0r
1F	.	.	.
.	.	2D/	.
2D\	.	2F/	.
=4	=4	=4	=4
2E\	0r	2G/	0r
2C/	.	2A/	.
2D\	.	2B\	.
2E\	.	[2c\	.
=5	=5	=5	=5
1AA	0r	4c\]	0r
.	.	4B\	.
.	.	1A	.
1BB	.	.	.
.	.	2G#i/	.
=6	=6	=6	=6
2AA/	0r	2A/	0a
2C/	.	2.e\	.
2D\	.	.	.
.	.	4d\	.
2F\	.	[2d\	.
=7	=7	=7	=7
1E	1r	2d\]	1g
.	.	2c#i\	.
1D	[1A	1d	[1f
=8	=8	=8	=8
1AA	1A]	1.c	1f]
1C	1G	.	1e
.	.	2B\	.
=9	=9	=9	=9
1D	0F	1A	1r
2r	.	1D	1d
2A\	.	.	.
=10	=10	=10	=10
2G\	1E	2r	1g
2E\	.	2G/	.
2.F\	1D	2A/	2f/
.	.	2B\	2d/
4E\	.	.	.
=11	=11	=11	=11
1C	1G	4c\	4e/
.	.	4d\	4d/
.	.	2e\	4c/
.	.	.	4B/
2D\	2F/	2.d\	1A
[2F\	[2D/	.	.
.	.	4c\	.
=12	=12	=12	=12
2F\]	2D/]	2A/	2f/
2C/	2E/	2c\	2.e/
2D\	2F/	2A/	.
.	.	.	4d/
2GG/	2G/	2B\	[2d/
=13	=13	=13	=13
1AA	1E	1A	2d/]
.	.	.	2c#i/
2r	1D	4F/	1d
.	.	4G/	.
2D\	.	4A/	.
.	.	4B\	.
=14	=14	=14	=14
2C/	0G	2c\	2e/
2D\	.	1B	2d/
1E	.	.	1g
.	.	2c\	.
=15	=15	=15	=15
1.D	1A	1d	1f
.	[1B	2D/	[1d
2C/	.	2E/	.
=16	=16	=16	=16
2BB/	1B]	2D/	1d]
2GG/	.	1G	.
1AA	1c	.	2r
.	.	2F#i/	2a/
=17	=17	=17	=17
1GG	1d	4G/	0b
.	.	4A/	.
.	.	4B\	.
.	.	4c\	.
1G	[1d	2d\	.
.	.	[2g\	.
=18	=18	=18	=18
1A	2d\]	2g\]	1a
.	2c\	2f#i\	.
1G	2B\	2.g\	2r
.	2G/	.	[2dd\
.	.	4fni\	.
=19	=19	=19	=19
0r	1A	4e\	2dd\]
.	.	4d\	.
.	.	2e\	2cc#i\
.	2D/	1d	[1dd
.	2F/	.	.
=20	=20	=20	=20
1r	2G/	2B\	2dd\]
.	2.A/	2c\	2cc\
1G	.	2d\	2b\
.	4G/	.	.
.	[2G/	2e\	2g/
=21	=21	=21	=21
1D	2G/]	0d	1a
.	2F#i/	.	.
2G\	2G/	.	2d/
2D\	2A/	.	2f/
=22	=22	=22	=22
2G\	2B\	2e\	2g/
1F	2c\	1f	2.a/
.	2d\	.	.
.	.	.	4g/
2G\	2B\	2e\	[2g/
=23	=23	=23	=23
1D	1A	1d	2g/]
.	.	.	2f#i/
2r	1G	1B	[1g
[2E\	.	.	.
=24	=24	=24	=24
4E\]	2r	1G	1g]
4F\	.	.	.
1G	1d	.	.
.	.	1A	1r
2F\	2c\	.	.
=25	=25	=25	=25
2G\	2B\	2G/	1r
2D\	2A/	2F/	.
2r	1G	2G/	2r
2GG/	.	2B\	[2dd\
=26	=26	=26	=26
1AA	1F	1A	2dd\]
.	.	.	2cc\
2GG/	2G/	2r	2b\
2r	2D/	[2d\	2a/
=27	=27	=27	=27
1G	1E	2d\]	1g
.	.	2c\	.
2A\	1D	4d\	1f
.	.	4c\	.
4G\	.	4B\	.
4F\	.	4A/	.
=28	=28	=28	=28
2E\	2r	2G/	2g/
2F\	2D/	2A/	2d/
2.C/	2G/	2E/	1e
.	2A/	2F/	.
4BB/	.	.	.
=29	=29	=29	=29
2GG/	1B-	2G/	1d
1D	.	1F	.
.	2A/	.	2r
2BB/	[2G/	2D/	2d/
=30	=30	=30	=30
2C/	2G/]	2E/	2g/
2AA/	2F/	2C/	2a/
4GG/	2G/	2D/	1b
4AA/	.	.	.
4BB/	2D/	[2d\	.
4C/	.	.	.
=31	=31	=31	=31
2D\	2F/	4d\]	2a/
.	.	4B\	.
2E\	2G/	2c\	2.g/
1D	1A	1d	.
.	.	.	4f#i/
.	.	.	4f#i/
.	.	.	4e/
=32	=32	=32	=32
2r	1G	1B	1g
2G\	.	.	.
2A\	1r	2r	1r
2F\	.	2d\	.
=33	=33	=33	=33
1E	0r	2e\	0r
.	.	2c\	.
2r	.	1B	.
2G\	.	.	.
=34	=34	=34	=34
2F\	0r	2r	0r
4E\	.	2d\	.
4D\	.	.	.
2E\	.	2c\	.
[2D\	.	4B\	.
.	.	4A/	.
=35	=35	=35	=35
2D\]	0r	2B\	0r
2C/	.	1A	.
2D\	.	.	.
2F\	.	[2d\	.
=36	=36	=36	=36
1E	0r	2d\]	1g
.	.	2c#i\	.
1D	.	[1d	2f/
.	.	.	2a/
=37	=37	=37	=37
1GG	1G	1d]	2g/
.	.	.	2b-i\
1D	2F/	2.f\	2a/
.	2A/	.	4g/
.	.	4e\	4f/
=38	=38	=38	=38
1r	2G/	2c\	2e/
.	2B-i\	2.d\	2d/
2D\	2.A/	.	2.f/
.	.	4c\	.
4E\	.	2A/	.
4F\	8G/L	.	4e/
.	8F/J	.	.
=39	=39	=39	=39
2G\	2E/	2G/	2c/
2F\	2D/	2.A/	2.d/
1A	2.F/	.	.
.	.	4B\	4e/
.	.	[2c\	4f/
.	4E/	.	4g/
=40	=40	=40	=40
2G\	2C/	4c\]	2e/
.	.	4B\	.
2F\	2.D/	1A	2d/
2.D\	.	.	1a
.	4E/	.	.
.	4F/	2d\	.
4BB/	4G/	.	.
=41	=41	=41	=41
2C/	2E/	2e\	2g/
1D	2D/	2A/	1f
.	1A	2d\	.
2AA/	.	[2c\	[2e/
=42	=42	=42	=42
2C/	2G/	2c\]	2e/]
2D\	2F/	2B\	1d
1AA	1E	1A	.
.	.	.	2c#i/
=43	=43	=43	=43
0Al	0Dl	0Al	0dl
!!LO:LB:i:g=z
=44||	=44||	=44||	=44||
*>B	*>B	*>B	*>B
*clefF4	*clefGv2	*clefGv2	*clefG2
*k[]	*k[]	*k[]	*k[]
*M2/1	*M2/1	*M2/1	*M2/1
*met(C)	*met(C)	*met(C)	*met(C)
!!section: Pleni sunt celi
!!!OMD: Pleni sunt celi
0r	0r	0r	0d
=45	=45	=45	=45
0r	0r	0D	1d
.	.	.	[1a
=46	=46	=46	=46
0r	0r	1D	2a/]
.	.	.	2g/
.	.	[1A	1f
=47	=47	=47	=47
0r	0r	2A/]	1e
.	.	2G/	.
.	.	1F	1d
=48	=48	=48	=48
0r	0r	1E	1g
.	.	1D	2f/
.	.	.	[2a/
=49	=49	=49	=49
0r	0r	1r	2a/]
.	.	.	2b-i\
.	.	1d	2a/
.	.	.	4g/
.	.	.	4f/
=50	=50	=50	=50
0r	0r	2c\	1e
.	.	1e	.
.	.	.	2.A/
.	.	2f\	.
.	.	.	4B/
=51	=51	=51	=51
0r	0r	2e\	4c/
.	.	.	4d/
.	.	4d\	1e
.	.	4c\	.
.	.	1B	.
.	.	.	2d/
=52	=52	=52	=52
0r	0r	2.A/	2f/
.	.	.	2.e/
.	.	4B\	.
.	.	4c\	.
.	.	4d\	4d/
.	.	[2e\	2c/
=53	=53	=53	=53
0r	0r	2e\]	1B
.	.	2d\	.
.	.	2f\	1A
.	.	[2e\	.
=54	=54	=54	=54
0r	0r	4e\]	2r
.	.	4d\	.
.	.	2c\	1a
.	.	1B	.
.	.	.	2g/
=55	=55	=55	=55
0r	0r	1A	2a/
.	.	.	1f
.	.	1B-	.
.	.	.	2d/
=56	=56	=56	=56
0r	0r	2A/	2e/
.	.	1F	2f/
.	.	.	1d
.	.	2D/	.
=57	=57	=57	=57
0r	0r	2E/	1r
.	.	2F/	.
.	.	1D	1a
=58	=58	=58	=58
0r	0r	1r	1dd
.	.	1A	2cc\
.	.	.	2a/
=59	=59	=59	=59
0r	0r	1d	4b\
.	.	.	4a/
.	.	.	4g/
.	.	.	4f/
.	.	2c\	1e
.	.	2A/	.
=60	=60	=60	=60
0r	0r	4B\	1d
.	.	4A/	.
.	.	4G/	.
.	.	4F/	.
.	.	1E	1c
=61	=61	=61	=61
0r	0r	1D	1f
.	.	1C	2g/
.	.	.	[2a/
=62	=62	=62	=62
0r	0r	1F	2a/]
.	.	.	1d
.	.	1G	.
.	.	.	[2e/
=63	=63	=63	=63
0r	0r	1A	2e/]
.	.	.	2c/
.	.	2B\	2d/
.	.	2A/	[2e/
=64	=64	=64	=64
0r	0r	2.c\	2e/]
.	.	.	1A
.	.	4d\	.
.	.	1e	.
.	.	.	2G/
=65	=65	=65	=65
0r	0r	1A	2A/
.	.	.	2c/
.	.	2G/	2d/
.	.	2A/	2f/
=66	=66	=66	=66
0r	0r	2c\	2.e/
.	.	2d\	.
.	.	.	4d/
.	.	2f\	2d/
.	.	[2e\	[2g/
=67	=67	=67	=67
0r	0r	4e\]	2g/]
.	.	4d\	.
.	.	1d	2f/
.	.	.	1e
.	.	2c#i\	.
=68	=68	=68	=68
0r	0r	1d	0d
.	.	1r	.
=69	=69	=69	=69
1.D	0r	0A	0r
[2F\	.	.	.
=70	=70	=70	=70
2F\]	0r	0d	0r
2D\	.	.	.
2F\	.	.	.
2G\	.	.	.
=71	=71	=71	=71
2E\	0r	1c	0r
2.F\	.	.	.
.	.	1A	.
4G\	.	.	.
[2A\	.	.	.
=72	=72	=72	=72
2A\]	0r	0B	0r
4G\	.	.	.
4F\	.	.	.
1G	.	.	.
=73	=73	=73	=73
1A	0r	0A	0r
1D	.	.	.
=74	=74	=74	=74
2D\	0r	1.D	0r
2.F\	.	.	.
4G\	.	.	.
[2A\	.	[2F/	.
=75	=75	=75	=75
2A\]	0r	2F/]	0r
2F\	.	2D/	.
2D\	.	2F/	.
2E\	.	2G/	.
=76	=76	=76	=76
2C/	0r	2E/	0r
1D	.	2.F/	.
.	.	4G/	.
2C/	.	[2A/	.
=77	=77	=77	=77
2AA/	0r	2A/]	1r
2C/	.	4G#i/	.
.	.	4F#i/	.
1BB	.	1G#i	1d
=78	=78	=78	=78
2.AA/	0r	0A	2.c/
4BB/	.	.	4d/
2C/	.	.	2e/
[2D\	.	.	[2f/
=79	=79	=79	=79
4D\]	0r	1r	4f/]
4C/	.	.	4e/
4BB/	.	.	4d/
4AA/	.	.	4c/
2.GG#i/	.	1d	1B
4FF#i/	.	.	.
=80	=80	=80	=80
1AA	0r	2.c\	1A
.	.	4d\	.
[1A	.	2e\	1r
.	.	[2f\	.
=81	=81	=81	=81
1A]	0r	4f\]	1.d
.	.	4e\	.
.	.	4d\	.
.	.	4c\	.
1G#i	.	1B	.
.	.	.	2e/
=82	=82	=82	=82
1A	0r	0A	1f
2r	.	.	1e
2A\	.	.	.
=83	=83	=83	=83
2F\	0r	1r	2d/
1D	.	.	1f
.	.	1d	.
2G\	.	.	2e/
=84	=84	=84	=84
2F\	0r	2d\	2d/
1A	.	2e\	4c/
.	.	.	4B/
.	.	1f	2A/
2F\	.	.	[2d/
=85	=85	=85	=85
2G\	0r	1e	2d/]
2A\	.	.	2c#i/
[1D	.	2d\	1d
.	.	[2f\	.
=86	=86	=86	=86
2D\]	0r	2f\]	1r
2C/	.	2e\	.
2D\	.	2d\	[1a
[2F\	.	4c\	.
.	.	4B\	.
=87	=87	=87	=87
2F\]	0r	2A/	1a]
4E\	.	1d	.
4D\	.	.	.
1E	.	.	1g
.	.	2c#i\	.
=88	=88	=88	=88
1D	0r	1d	2.f/
.	.	.	4g/
[1D	.	1r	2a/
.	.	.	[2b-i\
=89	=89	=89	=89
2D\]	0r	0d	4b-\]
.	.	.	4a/
2C/	.	.	1a
1BB-i	.	.	.
.	.	.	2g/
=90	=90	=90	=90
1.AA	0r	2.c\	2a/
.	.	.	2.cc\
.	.	4d\	.
.	.	2e\	.
.	.	.	4b\
[2D\	.	[2f\	[2a/
=91	=91	=91	=91
4D\]	0r	4f\]	4a/]
4AA/	.	4e\	4g/
2C/	.	1e	4f/
.	.	.	4e/
2D\	.	.	2f/
2BB-/	.	2d\	4e/
.	.	.	4d/
=92	=92	=92	=92
2.C/	0r	2e\	2c/
.	.	2.g\	2.e/
4D\	.	.	.
1E	.	.	.
.	.	4f\	4f/
.	.	[2e\	[2g/
=93	=93	=93	=93
1C	0r	4e\]	4g/]
.	.	4d\	4f/
.	.	1c	1e
1AA	.	.	.
.	.	4B\	4d/
.	.	4A/	4c/
=94	=94	=94	=94
1.E	0r	1.G	1B
.	.	.	2r
[2F\	.	[2A/	2A/
=95	=95	=95	=95
2F\]	0r	2A/]	2c/
4E\	.	4G/	2d/
4D\	.	4F/	.
2C/	.	2.E/	2e/
[2E\	.	.	[2g/
.	.	4F/	.
=96	=96	=96	=96
2E\]	0r	2G/	2g/]
4D\	.	1A	4f/
4C/	.	.	4e/
1BB	.	.	1d
.	.	2G#i/	.
=97	=97	=97	=97
0AAl	0r	0Al	0cl
!!LO:LB:i:g=z
=98||	=98||	=98||	=98||
*>C	*>C	*>C	*>C
*clefF4	*clefGv2	*clefGv2	*clefG2
*k[]	*k[]	*k[]	*k[]
*M3/1	*M3/1	*M3/1	*M3/1
*met(C|3)	*met(C|3)	*met(C|3)	*met(C|3)
!!section: Osanna
!!!OMD: Osanna
0D	0.r	0d	0a
1F	.	[1c	1a
=99	=99	=99	=99
1E	0.r	1c]	1g
0D	.	0d	0f
=100	=100	=100	=100
0AA	0A	0c	[0.e
[1C	1A	1c	.
=101	=101	=101	=101
1C]	1G	1e	1e]
0D	0F	0d	0a
=102	=102	=102	=102
1E	0E	1B	0g
1C	.	1c	.
1D	[1A	1A	1f
=103	=103	=103	=103
1.AA	0.A]	1.c	1.e
2BB/	.	2d\	2d/
2C/	.	[1e	1c
2D\	.	.	.
=104	=104	=104	=104
0E	0G	1e]	0B
.	.	1B	.
1r	1F	1c	1A
=105	=105	=105	=105
1AA	1E	0A	1c
1D	1F	.	1d
1C	1G	[1c	[1e
=106	=106	=106	=106
0AA	0A	1c]	1e]
.	.	0A	0f
[1BB-	[1D	.	.
=107	=107	=107	=107
1BB-]	1D]	1G	0d
0AA	0E	1.A	.
.	.	.	1c#i
.	.	2G/	.
=108	=108	=108	=108
1r	[0.D	1A	0.d
1r	.	1B-i	.
1A	.	1A	.
=109	=109	=109	=109
1.A	0.D]	1.F	0.r
2G\	.	2G/	.
1F	.	1A	.
=110	=110	=110	=110
0E	0.r	1G	0g
.	.	1.c	.
1F	.	.	1a
.	.	2d\	.
=111	=111	=111	=111
1E	0.r	1.e	1.g
1.C	.	.	.
.	.	2d\	2f/
.	.	1c	1e
2BB/	.	.	.
=112	=112	=112	=112
0GG	0G	1B	1d
.	.	1c	1e
1D	1A	1d	1f
=113	=113	=113	=113
1.E	1.G	0B	1.g
2F\	2F/	.	2a/
1G	1E	1G	2b\
.	.	.	2cc\
=114	=114	=114	=114
1.F	1D	0.A	0dd
.	1E	.	.
2G\	.	.	.
1A	1F	.	1cc
=115	=115	=115	=115
1.G	1.G	0d	1b
.	.	.	0g
2F\	2A/	.	.
1E	2B\	1G	.
.	2c\	.	.
=116	=116	=116	=116
1D	0d	0.A	1f
1.F	.	.	1.a
.	1c	.	.
2D\	.	.	2g/
=117	=117	=117	=117
1G	1B	0.d	0g
0D	0A	.	.
.	.	.	1f#i
=118	=118	=118	=118
[0.GG	0G	0B	0.g
.	1r	1G	.
=119	=119	=119	=119
0.GG]	1.d	1.B	0.r
.	2c\	2c\	.
.	1B	2d\	.
.	.	2e\	.
=120	=120	=120	=120
0.r	1A	1f	0.r
.	1G	2d\	.
.	.	1e	.
.	1A	.	.
.	.	2d\	.
=121	=121	=121	=121
0.r	1F	1.d	0.r
.	0E	.	.
.	.	4c#i\	.
.	.	4B\	.
.	.	1c#i	.
=122	=122	=122	=122
0D	1D	0.d	1.dd
.	1F	.	.
.	.	.	2cc\
1GG	1G	.	1b
=123	=123	=123	=123
1D	1A	1D	1a
1GG	1B-i	1G	1g
[1D	1A	1F	1a
=124	=124	=124	=124
1D]	0d	1D	1f
0AA	.	0A	0e
.	1c#i	.	.
=125	=125	=125	=125
0A	0d	0D	1d
.	.	.	1f
1G	1r	1d	1g
=126	=126	=126	=126
0F	1D	0d	0a
.	1F	.	.
1E	1G	[1e	1g
=127	=127	=127	=127
1C	0A	1e]	1e
1D	.	1d	1f
1E	1G	1c	1g
=128	=128	=128	=128
1D	1F	[0.d	1a
1GG	1G	.	1.b-i
[1G	[1B-	.	.
.	.	.	2a/
=129	=129	=129	=129
1G]	1B-]	0.d]	0g
0D	0A	.	.
.	.	.	1f#i
=130	=130	=130	=130
1E	0G	1B	0.g
1C	.	1c	.
1E	1G	1B	.
=131	=131	=131	=131
1.D	0A	1.d	0.r
2E\	.	2c\	.
1F	1F	2B\	.
.	.	2A/	.
=132	=132	=132	=132
1.G	0E	1G	1r
.	.	1B	1r
2F\	.	.	.
1E	1G	1c	1g
=133	=133	=133	=133
0.D	1F	1d	0a
.	1D	1A	.
.	1F	1d	1f
=134	=134	=134	=134
1r	1G	1e	0e
1r	0E	1B	.
1G	.	1c	1g
=135	=135	=135	=135
0A	0.D	0d	1f
.	.	.	1d
1F	.	1d	1f
=136	=136	=136	=136
0E	0G	1.e	1g
.	.	.	0e
.	.	2d\	.
1AA	1A	2c\	.
.	.	2B\	.
=137	=137	=137	=137
1D	1F	0A	0d
0AA	0E	.	.
.	.	1A	1c#i
=138	=138	=138	=138
0.Al	0.Dl	0.Al	0.dl
!!LO:LB:i:g=z
!!LO:TX:rj:i:Y=30:t=fine
=139||	=139||	=139||	=139||
*>D	*>D	*>D	*>D
*clefF4	*clefGv2	*clefGv2	*clefG2
*k[]	*k[]	*k[]	*k[]
*M2/1	*M2/1	*M2/1	*M2/1
*met(C|)	*met(C|)	*met(C|)	*met(C|)
!!section: Benedictus
!!!OMD: Benedictus
0r	0r	0r	1d
.	.	.	[1a
=140	=140	=140	=140
0r	0r	0r	2a/]
.	.	.	2b\
.	.	.	1cc
=141	=141	=141	=141
0r	0r	1D	1dd
.	.	[1A	2cc\
.	.	.	[2a/
=142	=142	=142	=142
0r	0r	2A/]	4a/]
.	.	.	4g/
.	.	2B\	2f/
.	.	1c	1e
=143	=143	=143	=143
0r	0r	1d	1d
.	.	2c\	2e/
.	.	[2A/	[2f/
=144	=144	=144	=144
0r	0r	4A/]	4f/]
.	.	4G/	4e/
.	.	2F/	1d
.	.	1E	.
.	.	.	2c#i/
=145	=145	=145	=145
0r	0r	1D	2d/
.	.	.	2f/
.	.	2E/	2g/
.	.	[2F/	[2a/
=146	=146	=146	=146
0r	0r	4F/]	2a/]
.	.	4E/	.
.	.	1D	4g/
.	.	.	4f/
.	.	.	1e
.	.	2C#i/	.
=147	=147	=147	=147
0r	0r	2D/	1r
.	.	2F/	.
.	.	2G/	1e
.	.	[2A/	.
=148	=148	=148	=148
0r	0r	2A/]	1.e
.	.	4G/	.
.	.	4F/	.
.	.	1E	.
.	.	.	2d/
=149	=149	=149	=149
0r	0r	0r	1c
.	.	.	1B
=150	=150	=150	=150
0r	0r	1e	2A/
.	.	.	2.c/
.	.	1e	.
.	.	.	4d/
.	.	.	4e/
.	.	.	4f/
=151	=151	=151	=151
0r	0r	1.e	2g/
.	.	.	2a/
.	.	.	2cc\
.	.	2d\	[2b\
=152	=152	=152	=152
0r	0r	1c	4b\]
.	.	.	4a/
.	.	.	1a
.	.	1B	.
.	.	.	2g#i/
=153	=153	=153	=153
0r	0r	1.A	1a
.	.	.	1r
.	.	[2F/	.
=154	=154	=154	=154
0r	0r	2F/]	1d
.	.	2G/	.
.	.	2F/	[1a
.	.	[2D/	.
=155	=155	=155	=155
0r	0r	4D/]	1a]
.	.	4E/	.
.	.	4F/	.
.	.	4G/	.
.	.	1E	1g
=156	=156	=156	=156
0r	0r	1D	1f
.	.	[1A	1e
=157	=157	=157	=157
0r	0r	1A]	2r
.	.	.	1cc
.	.	1G	.
.	.	.	2b\
=158	=158	=158	=158
0r	0r	1F	2a/
.	.	.	1dd
.	.	1E	.
.	.	.	2cc\
=159	=159	=159	=159
0r	0r	2r	2dd\
.	.	1c	1a
.	.	2B\	2g/
=160	=160	=160	=160
0r	0r	2A/	2a/
.	.	1d	2f/
.	.	.	1e
.	.	2c#i\	.
=161	=161	=161	=161
0r	0r	2d\	2d/
.	.	1A	2e/
.	.	.	2f/
.	.	2G/	4g/
.	.	.	4f/
=162	=162	=162	=162
0r	0r	2A/	4e/
.	.	.	4d/
.	.	2F/	1d
.	.	1E	.
.	.	.	2c#i/
=163	=163	=163	=163
0r	0r	1D	0d
.	.	1r	.
=164	=164	=164	=164
1.AA	0r	0A	0r
[2C/	.	.	.
=165	=165	=165	=165
4C/]	0r	1G	0r
4BB/	.	.	.
1E	.	.	.
.	.	1F	.
2D\	.	.	.
=166	=166	=166	=166
1.E	0r	0E	0r
[2C/	.	.	.
=167	=167	=167	=167
2C/]	0r	1r	0r
2AA/	.	.	.
1BB	.	1G	.
=168	=168	=168	=168
1C	0r	1.A	0r
1AA	.	.	.
.	.	[2F/	.
=169	=169	=169	=169
2r	0r	2F/]	0r
1D	.	2D/	.
.	.	1E	.
2C/	.	.	.
=170	=170	=170	=170
1D	0r	1F	0r
2.F\	.	1D	.
4G\	.	.	.
=171	=171	=171	=171
1A	0r	2r	0r
.	.	2D/	.
2.G\	.	2E/	.
.	.	2G/	.
4F\	.	.	.
=172	=172	=172	=172
1D	0r	2A/	0r
.	.	4G/	.
.	.	4A/	.
2r	.	4B\	.
.	.	4A/	.
2D\	.	4G/	.
.	.	4F/	.
=173	=173	=173	=173
2E\	0r	1E	0r
2G\	.	.	.
2A\	.	1D	.
4G\	.	.	.
4A\	.	.	.
=174	=174	=174	=174
4B\	0r	2r	0r
4A\	.	.	.
4G\	.	1d	.
4F\	.	.	.
1E	.	.	.
.	.	2c#i\	.
=175	=175	=175	=175
2D\	0r	2.d\	0r
2.F\	.	.	.
.	.	4c\	.
.	.	2.A/	.
4G\	.	.	.
[2A\	.	.	.
.	.	4B\	.
=176	=176	=176	=176
2A\]	0r	2c\	0r
1D	.	2d\	.
.	.	2B\	.
2C/	.	[2A/	.
=177	=177	=177	=177
2D\	0r	4A/]	0r
.	.	4G/	.
2BB/	.	1G	.
1AA	.	.	.
.	.	2F#i/	.
=178	=178	=178	=178
0GG	0r	1G	1r
.	.	2D/	1dd
.	.	[2G/	.
=179	=179	=179	=179
0r	0r	4G/]	1.dd
.	.	4A/	.
.	.	4B\	.
.	.	4c\	.
.	.	2d\	.
.	.	2e\	2cc\
=180	=180	=180	=180
0r	0r	2d\	1b
.	.	1g	.
.	.	.	1a
.	.	2f#i\	.
=181	=181	=181	=181
0r	0r	2g\	0g
.	.	2e\	.
.	.	4e\	.
.	.	4d\	.
.	.	4c\	.
.	.	4B\	.
=182	=182	=182	=182
0r	0r	2A/	1f
.	.	1d	.
.	.	.	1e
.	.	2c#i\	.
=183	=183	=183	=183
0r	0r	2d\	2.d/
.	.	1G	.
.	.	.	4c/
.	.	.	2B/
.	.	2F/	2A/
=184	=184	=184	=184
0r	0r	2G/	2B/
.	.	2E/	2c/
.	.	2D/	2.d/
.	.	[2d\	.
.	.	.	4e/
=185	=185	=185	=185
0r	0r	4d\]	4f/
.	.	4e\	4g/
.	.	4f\	2a/
.	.	4d\	.
.	.	2g\	1b
.	.	[2d\	.
=186	=186	=186	=186
0r	0r	2d\]	2a/
.	.	4c\	1g
.	.	4B\	.
.	.	1A	.
.	.	.	2f#i/
=187	=187	=187	=187
0r	0r	1G	0g
.	.	1r	.
=188	=188	=188	=188
0r	0r	1G	0r
.	.	[1A	.
=189	=189	=189	=189
0r	0r	2A/]	0r
.	.	2G/	.
.	.	1F	.
=190	=190	=190	=190
1G	0r	1E	0r
[1A	.	2D/	.
.	.	[2F/	.
=191	=191	=191	=191
2A\]	0r	2F/]	0r
2G\	.	2E/	.
1F	.	2F/	.
.	.	[2D/	.
=192	=192	=192	=192
1E	0r	2D/]	1g
.	.	2C/	.
2D\	.	2F/	[1a
[2F\	.	2D/	.
=193	=193	=193	=193
2F\]	0r	2F/	2a/]
2E\	.	2G/	2g/
2F\	.	1A	1f
[2D\	.	.	.
=194	=194	=194	=194
2D\]	0r	2B\	1e
2C/	.	2c\	.
1D	.	2A/	2d/
.	.	[2d\	[2f/
=195	=195	=195	=195
1AA	0r	2d\]	2f/]
.	.	2c\	2e/
1D	.	2d\	2f/
.	.	2f\	[2d/
=196	=196	=196	=196
1A	0r	1e	2d/]
.	.	.	2c/
[1D	.	2r	2.f/
.	.	[2d\	.
.	.	.	4e/
=197	=197	=197	=197
2D\]	0r	2d\]	2f/
2E\	.	4c\	2g/
.	.	4B\	.
4F\	.	2A/	1a
4E\	.	.	.
4D\	.	2F/	.
4C/	.	.	.
=198	=198	=198	=198
2BB/	0r	2G/	2b\
2AA/	.	1A	2cc\
1D	.	.	2a/
.	.	4G/	[2dd\
.	.	4F/	.
=199	=199	=199	=199
1G	0r	1E	2dd\]
.	.	.	2cc\
1F	.	1D	2b\
.	.	.	[2dd\
=200	=200	=200	=200
1D	0r	0d	2dd\]
.	.	.	4cc\
.	.	.	4b\
2r	.	.	2a/
2D\	.	.	2f/
=201	=201	=201	=201
2E\	0r	1c	2g/
1F	.	.	1a
.	.	2A/	.
4E\	.	[2c\	4g/
4D\	.	.	4f/
=202	=202	=202	=202
2C/	0r	2c\]	2e/
1D	.	2B\	2d/
.	.	1A	2f/
[2C/	.	.	[2e/
=203	=203	=203	=203
2C/]	0r	1G	4e/]
.	.	.	4d/
2BB/	.	.	1d
1AA	.	1A	.
.	.	.	2c#i/
=204	=204	=204	=204
0Al	0r	0Dl	0dl
!!LO:TX:i:Y=40:rj:t=Osanna ut supra
=||	=||	=||	=||
*-	*-	*-	*-
!!!RDF**kern: l=long note in original notation
!!!RDF**kern: i=editorial accidental
!!!ENC:	Chris Gage 10-23-2013
!!!END:	2015/03/06/
!!!EED:	Jesse Rodin
!!!EEV:	2015/03/09/
!!!ONB:	Translated from MusicXML and edited on 2015/03/09/ by Craig Sapp
!!muse2ps: T^@{OPR}^u^@{ONM}{. }@{OTL}^C^@{COM}^i2I150v85,85,85,150Q16
